X: 301
T:Good Morning, You Would Like Some Tea
R:Jig
Z:Gerry Strong from Rufus Guinchard
M:6/8
L:1/8
K:G
d2 c|:BGG B2 d|g2 g f2 e|ded B2 A|G2 G A2 B|c2 e edc|1B2 d dBG|A2 c B2 G
|A3
d2 c:|2B2 d g2 a|bgb a2 f|g3 g2 a|
|:b2 b bag|a2 a agf|g2 a gfe|d2 B G2 B|c2 e edc|1B2 d dBG|A2 c B2 G|A3 g
2
a:|2B2 d g2 a|bgb a2 f|g3||

